X:1
T:The Chase
M:6/8
L:1/8
Q:80
C:David Williams
S:Jig
K:HP
[| {g}cdc{g}e2A|
{g}cdc{g}e2a|
cdc{g}e2A|  !
{g}Bcd{g}Bcd|] [|
{g}cdc{g}e2A|
{g}cdc{g}e2a|  !
cdc{g}e2A|
{g}Bcd{g}cde|] [|
{g}efea2e|  !
{g}ded{g}f2d|
{g}cdc{g}e2c|
{g}Bcd{g}cde|] [|  !
{g}efea2e|
{g}ded{g}f2d|
{g}cdc{g}e2c|  !
{g}Bcd{g}Bcd|] [|
{ag}a3e2a|
{fg}f3{g}d2f|  !
{gef}e3{g}c2e|
{g}Bcd{g}cde|] [|
{ag}a3e2a|  !
{gfg}f3{g}d2f|
{gef}e3{g}c2e|
{g}Bcd{g}Bcd|] [|  !
{g}cdc{g}A3/2{d}A/2{e}A|
{g}cdc{g}e3/2a/2{g}a|
cdc{g}A3/2{d}A/2{e}A|  !
{g}Bcd{g}Bcd|] [|
{g}cdc{g}A3/2{d}A/2{e}A|
{g}cdc{g}e3/2a/2{g}a|  !
cdc{g}A3/2{d}A/2{e}A|
{g}cde{GAG}A3

